src/images/logo1.svg

<svg width="75" height="42" viewBox="0 0 75 42" fill="none" xmlns="http://www.w3.org/2000/svg">
<path fill-rule="evenodd" clip-rule="evenodd" d="M63.396 27.9281C63.2882 28.7559 63.1445 29.5476 63.0007 30.3034C62.2819 30.0875 61.4913 29.6916 60.3412 29.7636C59.6584 29.7996 58.8318 30.0875 58.8318 30.6993C58.8318 31.3831 59.9459 31.779 60.5569 32.1029C61.671 32.6427 62.8929 33.3625 63.0007 34.8381C63.0726 35.9538 62.5335 36.9615 61.9585 37.5014C60.3772 39.0129 56.8552 39.1569 54.4832 38.1852C54.627 37.3934 54.7707 36.5656 54.8785 35.7379C55.8129 36.1337 57.0708 36.6736 58.4724 36.4936C59.1193 36.4217 59.874 36.0258 59.874 35.378C59.8381 34.5862 58.3646 34.1183 57.6099 33.6864C56.7474 33.2186 55.7411 32.3908 55.7051 31.2032C55.6692 30.3754 55.9926 29.6196 56.388 29.1158C57.6099 27.6042 60.7725 27.0643 63.396 27.9281Z" fill="#3A57A7"/>
<path fill-rule="evenodd" clip-rule="evenodd" d="M34.9685 12.3804H38.167L36.1904 24.7968H32.9918L34.9685 12.3804Z" fill="#3A57A7"/>
<path fill-rule="evenodd" clip-rule="evenodd" d="M23.8993 12.3804H28.787C31.9136 12.3804 32.7043 14.1799 32.3809 16.3033C32.0933 18.1027 30.7995 19.2904 29.1464 19.7223L32.2371 24.7968H28.212L25.8759 19.9022L25.0853 24.7968H21.9227L23.8993 12.3804ZM26.7025 14.8637L26.1994 17.9948H27.1338C28.0323 17.9948 28.8948 17.311 29.0385 16.4472C29.1823 15.5835 28.5713 14.8997 27.6729 14.8997H26.7025V14.8637Z" fill="#3A57A7"/>
<path fill-rule="evenodd" clip-rule="evenodd" d="M49.5596 12.3804H52.7581L50.8174 24.7968H47.6189L49.5596 12.3804Z" fill="#3A57A7"/>
<path fill-rule="evenodd" clip-rule="evenodd" d="M55.202 12.3804H62.21L61.7788 15.0796H57.9693L57.6458 17.203H61.2756L60.8444 19.9022H57.2145L56.8552 22.0976H60.6647L60.2334 24.7968H53.2253L55.202 12.3804Z" fill="#3A57A7"/>
<path fill-rule="evenodd" clip-rule="evenodd" d="M14.9865 12.3804H21.9945L21.5633 15.0796H17.7537L17.4303 17.203H21.0601L20.6289 19.9022H16.999L16.6396 22.0976H20.4492L20.0179 24.7968H13.0098L14.9865 12.3804Z" fill="#3A57A7"/>
<path fill-rule="evenodd" clip-rule="evenodd" d="M40.5749 12.3804H47.6907L47.2595 15.0796H43.3421L43.0187 17.203H46.5766L46.1454 19.9022H42.5874L41.8327 24.7968H38.6342L40.5749 12.3804Z" fill="#3A57A7"/>
<path fill-rule="evenodd" clip-rule="evenodd" d="M64.0789 12.3804H68.2478C73.2073 12.3804 74.3574 16.1233 73.962 18.6066C73.423 22.0976 70.2963 24.7968 66.3071 24.7968H62.1382L64.0789 12.3804ZM66.8462 15.0796C67.0618 15.0796 67.3134 15.0796 67.4931 15.0796C69.9369 15.0796 70.9073 16.8071 70.6197 18.4626C70.2604 20.694 68.679 22.0976 66.5587 22.0976C66.2711 22.0976 66.0196 22.0976 65.6961 22.0976L66.8462 15.0796Z" fill="#3A57A7"/>
<path fill-rule="evenodd" clip-rule="evenodd" d="M0 10.6889H5.9299L6.64868 19.7224C10.5301 12.9203 14.5193 6.40617 18.5085 0H20.4492C16.2084 8.20566 12.0036 16.4473 7.94247 24.7969H3.62982L2.55165 14.8638C2.30008 12.3805 1.79694 11.3368 0 11.0848V10.6889Z" fill="#3A57A7"/>
<path fill-rule="evenodd" clip-rule="evenodd" d="M2.22821 5.5785L7.29558 7.7019L7.72684 13.3163H8.08623L12.6505 5.5785V5.18262H2.22821V5.5785Z" fill="#F8981D"/>
<path fill-rule="evenodd" clip-rule="evenodd" d="M25.5525 33.6865C26.3072 33.6865 26.8463 34.3703 26.7025 35.27C26.5947 36.1338 25.8759 36.8176 25.0853 36.8176C24.3305 36.8176 23.7915 36.1338 23.9352 35.27C24.043 34.4062 24.7977 33.6865 25.5525 33.6865ZM22.9649 27.7122H25.0493L24.3665 32.6068C24.9415 32.0309 25.6962 31.671 26.4869 31.671C28.14 31.671 29.2182 33.2906 28.9307 35.234C28.6432 37.2134 27.0619 38.797 25.4087 38.797C24.5821 38.797 24.0071 38.4371 23.6118 37.7893L23.5039 38.5811H21.4195L22.9649 27.7122Z" fill="#3A57A7"/>
<path fill-rule="evenodd" clip-rule="evenodd" d="M29.0745 31.8508H31.5543L32.6684 35.3418L34.8247 31.8508H37.2326L30.9433 41.9999H28.5354L31.1949 37.7172L29.0745 31.8508Z" fill="#3A57A7"/>
<path fill-rule="evenodd" clip-rule="evenodd" d="M49.5596 38.653L51.3925 27.7122H54.3754L52.5425 38.653H49.5596Z" fill="#3A57A7"/>
<path fill-rule="evenodd" clip-rule="evenodd" d="M47.0798 27.7122C46.0376 30.1235 45.175 32.7147 44.1328 35.0901L43.8094 33.6505L43.8453 33.9024C43.6297 33.1466 43.2343 32.4268 42.7312 31.779L42.6953 31.743C42.6234 31.635 42.5156 31.5271 42.4078 31.4191C42.3359 31.3471 42.2999 31.2751 42.2281 31.2032C41.5093 30.4114 40.6467 29.7276 39.7123 29.1877L42.3718 38.617H45.5704C47.0798 34.9461 48.697 31.3831 50.2065 27.7122C49.1642 27.7122 48.122 27.7122 47.0798 27.7122Z" fill="#3A57A7"/>
<path fill-rule="evenodd" clip-rule="evenodd" d="M41.4734 27.7122H36.6216V27.9641C39.4249 28.5039 42.9469 30.8793 43.8813 33.9024L42.8391 28.7918C42.6953 28.0001 42.1203 27.7122 41.4734 27.7122Z" fill="#F8981D"/>
<path fill-rule="evenodd" clip-rule="evenodd" d="M73.4229 38.6531C72.5244 38.6531 71.59 38.6531 70.6916 38.6531C70.5119 38.1493 70.4759 37.5015 70.2962 36.9616C69.0743 36.9616 67.8165 36.9616 66.5945 36.9616L65.9117 38.6531C64.8695 38.6531 63.8273 38.6531 62.785 38.6531L66.8461 29.2958C67.0258 28.8999 67.3493 28.3241 67.493 28.0722C67.7086 27.7123 68.4993 27.6763 68.8228 27.6763H71.0869L73.4229 38.6531ZM68.8946 30.7354L67.3852 34.8022H69.829L68.8946 30.7354Z" fill="#3A57A7"/>
</svg>

<svg width="75" height="42" fill="none" xmlns="http://www.w3.org/2000/svg"><path fill-rule="evenodd" clip-rule="evenodd" d="M63.396 27.928c-.108.828-.252 1.62-.395 2.375-.72-.216-1.51-.611-2.66-.54-.683.037-1.51.324-1.51.936 0 .684 1.115 1.08 1.726 1.404 1.114.54 2.336 1.26 2.444 2.735.072 1.116-.468 2.123-1.042 2.663-1.582 1.512-5.104 1.656-7.476.684.144-.792.288-1.62.396-2.447.934.396 2.192.936 3.593.756.647-.072 1.402-.468 1.402-1.116-.036-.792-1.51-1.26-2.264-1.692-.863-.467-1.869-1.295-1.905-2.483a3.234 3.234 0 01.683-2.087c1.222-1.512 4.385-2.052 7.008-1.188zM34.968 12.38h3.199L36.19 24.797h-3.198l1.977-12.417zm-11.068 0h4.887c3.127 0 3.917 1.8 3.594 3.923-.288 1.8-1.582 2.987-3.235 3.42l3.091 5.074h-4.025l-2.336-4.895-.79 4.895h-3.163l1.976-12.417zm2.803 2.484l-.504 3.13h.935c.898 0 1.76-.683 1.904-1.547.144-.863-.467-1.547-1.365-1.547h-.97v-.036zM49.56 12.38h3.198l-1.94 12.417h-3.2L49.56 12.38zm5.642 0h7.008l-.431 2.7h-3.81l-.323 2.123h3.63l-.432 2.7h-3.63l-.359 2.195h3.81l-.432 2.699h-7.008l1.977-12.417zm-40.216 0h7.008l-.43 2.7h-3.81l-.324 2.123h3.63l-.431 2.7h-3.63l-.36 2.195h3.81l-.431 2.699H13.01l1.976-12.417zm25.589 0h7.116l-.431 2.7h-3.918l-.323 2.123h3.558l-.432 2.7h-3.558l-.754 4.894h-3.199l1.94-12.417zm23.504 0h4.169c4.96 0 6.11 3.743 5.714 6.227-.539 3.49-3.666 6.19-7.655 6.19h-4.169l1.94-12.417zm2.767 2.7h.647c2.444 0 3.414 1.727 3.127 3.383-.36 2.231-1.941 3.635-4.061 3.635h-.863l1.15-7.018zM0 10.689h5.93l.719 9.033C10.53 12.92 14.519 6.406 18.509 0h1.94c-4.24 8.206-8.445 16.447-12.507 24.797H3.63l-1.078-9.933C2.3 12.38 1.797 11.337 0 11.084v-.395z" fill="#3A57A7"/><path fill-rule="evenodd" clip-rule="evenodd" d="M2.228 5.579l5.068 2.123.43 5.614h.36l4.564-7.738v-.395H2.228v.396z" fill="#F8981D"/><path fill-rule="evenodd" clip-rule="evenodd" d="M25.552 33.687c.755 0 1.294.683 1.15 1.583-.107.864-.826 1.548-1.617 1.548-.755 0-1.294-.684-1.15-1.548.108-.864.863-1.584 1.617-1.584zm-2.587-5.975h2.084l-.683 4.895c.576-.576 1.33-.936 2.12-.936 1.654 0 2.732 1.62 2.445 3.563-.288 1.98-1.87 3.563-3.522 3.563-.827 0-1.402-.36-1.797-1.008l-.108.792h-2.085l1.546-10.869z" fill="#3A57A7"/><path fill-rule="evenodd" clip-rule="evenodd" d="M29.075 31.85h2.48l1.113 3.492 2.157-3.491h2.408L30.943 42h-2.408l2.66-4.283-2.12-5.866zm20.485 6.803l1.832-10.94h2.983l-1.833 10.94H49.56zm-2.48-10.941c-1.042 2.412-1.905 5.003-2.947 7.378l-.324-1.44.036.252c-.215-.755-.61-1.475-1.114-2.123l-.036-.036c-.072-.108-.18-.216-.287-.324-.072-.072-.108-.144-.18-.216a10.514 10.514 0 00-2.516-2.015l2.66 9.429h3.198c1.51-3.67 3.127-7.234 4.636-10.905H47.08z" fill="#3A57A7"/><path fill-rule="evenodd" clip-rule="evenodd" d="M41.473 27.712h-4.851v.252c2.803.54 6.325 2.915 7.26 5.938l-1.043-5.11c-.144-.792-.719-1.08-1.366-1.08z" fill="#F8981D"/><path fill-rule="evenodd" clip-rule="evenodd" d="M73.423 38.653h-2.731c-.18-.504-.216-1.151-.396-1.691h-3.702l-.682 1.691h-3.127l4.061-9.357c.18-.396.503-.972.647-1.224.216-.36 1.006-.396 1.33-.396h2.264l2.336 10.977zm-4.528-7.918l-1.51 4.067h2.444l-.934-4.067z" fill="#3A57A7"/></svg>
